X:19034
T:Swansea Town
T:Holy Ground
R:Polka
C:Trad.
O:Wales
M:4/4
L:1/8
Q:1/4=160
K:G
G>B|"G"d2d2 "D7"c2A2|"G"G2 G4 d2|"Am"e2a2 ("D7"gf)(ed)|"G"g6 d2|"C"g3f "Em"e3d|"C"e2d2 "D7"B2(G>B)|"G"e2d2 "C"c2B2|"D7"A6 (G>A)|
"G"B2d2 "D7"A2(BA)|"G"G2G2 G2d>d|"Em"e2a2 ("D7"gf)(ed)|"G"g6 "D7"(ed)|"G"g3f "C"e3d|"G"e2g2 "Em"B2(G>B)|"G"d3e ("D7"dc)(AF)|"G"G6 (GB)|
"G"d3e "D7"(dc)(AF)|"G"G2G2 G2d>d|"Em"e2a2 ("D7"gf)(ed)|"G"g6 "D7"(ed)|"G"g3f "C"e3d|"G"e2g2 "Em"B2(G>B)|"G"d3e ("D7"dc)(AF)|"G"G6|]

